tools/download-figma-icons/icons/solid/remote.svg

<svg width="25" height="24" viewBox="0 0 25 24" fill="none" xmlns="http://www.w3.org/2000/svg">
<path fill-rule="evenodd" clip-rule="evenodd" d="M17.6911 13.2114C17.5486 13.3607 17.3536 13.4364 17.1661 13.4364C16.9704 13.4364 16.7754 13.3607 16.6336 13.2114C14.0761 10.6614 9.92111 10.6614 7.37036 13.2114C7.07861 13.5039 6.59786 13.5039 6.30536 13.2114C6.01361 12.9182 6.01361 12.4457 6.30536 12.1539C9.44862 9.01069 14.5554 9.01069 17.6911 12.1539C17.9836 12.4457 17.9836 12.9182 17.6911 13.2114ZM15.4329 15.4764C15.2829 15.6189 15.0954 15.6939 14.9004 15.6939C14.7129 15.6939 14.5186 15.6189 14.3754 15.4764C13.0629 14.1639 10.9411 14.1639 9.62861 15.4764C9.33536 15.7682 8.86286 15.7682 8.57111 15.4764C8.27786 15.1839 8.27786 14.7032 8.57111 14.4114C9.48611 13.4964 10.7079 12.9939 11.9979 12.9939C13.2961 12.9939 14.5186 13.4964 15.4329 14.4114C15.7254 14.7032 15.7254 15.1839 15.4329 15.4764ZM11.9979 19.3232C11.1879 19.3232 10.5279 18.6639 10.5279 17.8464C10.5279 17.0289 11.1879 16.3689 11.9979 16.3689C12.8161 16.3689 13.4754 17.0289 13.4754 17.8464C13.4754 18.6639 12.8161 19.3232 11.9979 19.3232ZM23.7286 10.8932L12.4786 1.66819C12.2011 1.44394 11.8029 1.44394 11.5254 1.66819L0.275382 10.8932C0.0278823 11.0964 -0.0621177 11.4264 0.0436323 11.7264C0.147882 12.0264 0.432882 12.2214 0.747882 12.2214H3.32113V21.7764C3.32113 22.1889 3.65788 22.5264 4.07113 22.5264H19.9329C20.3454 22.5264 20.6829 22.1889 20.6829 21.7764V12.2214H23.2479C23.5711 12.2214 23.8479 12.0264 23.9604 11.7264C24.0661 11.4264 23.9679 11.0964 23.7286 10.8932Z" fill="black"/>
</svg>

<svg width="25" height="24" viewBox="0 0 25 24" fill="none" xmlns="http://www.w3.org/2000/svg"><path fill-rule="evenodd" clip-rule="evenodd" d="M17.691 13.211a.73.73 0 0 1-1.057 0c-2.558-2.55-6.713-2.55-9.264 0a.756.756 0 0 1-1.065 0 .748.748 0 0 1 0-1.057c3.144-3.143 8.25-3.143 11.386 0a.747.747 0 0 1 0 1.057Zm-2.258 2.265a.752.752 0 0 1-1.057 0 3.353 3.353 0 0 0-4.747 0 .748.748 0 0 1-1.058 0 .755.755 0 0 1 0-1.065 4.821 4.821 0 0 1 3.427-1.417c1.298 0 2.52.502 3.435 1.417a.756.756 0 0 1 0 1.065Zm-3.435 3.847c-.81 0-1.47-.66-1.47-1.477a1.474 1.474 0 1 1 2.947 0c0 .818-.659 1.477-1.477 1.477Zm11.73-8.43-11.25-9.225a.76.76 0 0 0-.953 0L.275 10.893a.75.75 0 0 0 .473 1.328H3.32v9.555c0 .413.337.75.75.75h15.862c.412 0 .75-.337.75-.75v-9.555h2.565c.323 0 .6-.195.712-.495a.763.763 0 0 0-.231-.833Z" fill="currentColor"/></svg>
